static/elearning-platform/icons/team-projects.svg

<svg width="200" height="94" viewBox="0 0 200 94" fill="none" xmlns="http://www.w3.org/2000/svg">
<path d="M11.3516 81.8008C11.3516 83.7305 10.9102 85.2852 10.0273 86.4648C9.14453 87.6445 7.94922 88.2344 6.44141 88.2344C4.90234 88.2344 3.69141 87.7461 2.80859 86.7695V92.875H0.640625V75.3203H2.62109L2.72656 76.7266C3.60938 75.6328 4.83594 75.0859 6.40625 75.0859C7.92969 75.0859 9.13281 75.6602 10.0156 76.8086C10.9062 77.957 11.3516 79.5547 11.3516 81.6016V81.8008ZM9.18359 81.5547C9.18359 80.125 8.87891 78.9961 8.26953 78.168C7.66016 77.3398 6.82422 76.9258 5.76172 76.9258C4.44922 76.9258 3.46484 77.5078 2.80859 78.6719V84.7305C3.45703 85.8867 4.44922 86.4648 5.78516 86.4648C6.82422 86.4648 7.64844 86.0547 8.25781 85.2344C8.875 84.4062 9.18359 83.1797 9.18359 81.5547Z" fill="#18191B"/>
<path d="M20.2461 77.2656C19.918 77.2109 19.5625 77.1836 19.1797 77.1836C17.7578 77.1836 16.793 77.7891 16.2852 79V88H14.1172V75.3203H16.2266L16.2617 76.7852C16.9727 75.6523 17.9805 75.0859 19.2852 75.0859C19.707 75.0859 20.0273 75.1406 20.2461 75.25V77.2656Z" fill="#18191B"/>
<path d="M21.4414 81.543C21.4414 80.3008 21.6836 79.1836 22.168 78.1914C22.6602 77.1992 23.3398 76.4336 24.207 75.8945C25.082 75.3555 26.0781 75.0859 27.1953 75.0859C28.9219 75.0859 30.3164 75.6836 31.3789 76.8789C32.4492 78.0742 32.9844 79.6641 32.9844 81.6484V81.8008C32.9844 83.0352 32.7461 84.1445 32.2695 85.1289C31.8008 86.1055 31.125 86.8672 30.2422 87.4141C29.3672 87.9609 28.3594 88.2344 27.2188 88.2344C25.5 88.2344 24.1055 87.6367 23.0352 86.4414C21.9727 85.2461 21.4414 83.6641 21.4414 81.6953V81.543ZM23.6211 81.8008C23.6211 83.207 23.9453 84.3359 24.5938 85.1875C25.25 86.0391 26.125 86.4648 27.2188 86.4648C28.3203 86.4648 29.1953 86.0352 29.8438 85.1758C30.4922 84.3086 30.8164 83.0977 30.8164 81.543C30.8164 80.1523 30.4844 79.0273 29.8203 78.168C29.1641 77.3008 28.2891 76.8672 27.1953 76.8672C26.125 76.8672 25.2617 77.293 24.6055 78.1445C23.9492 78.9961 23.6211 80.2148 23.6211 81.8008Z" fill="#18191B"/>
<path d="M37.9414 75.3203V89.4648C37.9414 91.9023 36.8359 93.1211 34.625 93.1211C34.1484 93.1211 33.707 93.0508 33.3008 92.9102V91.1758C33.5508 91.2383 33.8789 91.2695 34.2852 91.2695C34.7695 91.2695 35.1367 91.1367 35.3867 90.8711C35.6445 90.6133 35.7734 90.1602 35.7734 89.5117V75.3203H37.9414ZM35.5508 71.957C35.5508 71.6133 35.6562 71.3203 35.8672 71.0781C36.0859 70.8281 36.4023 70.7031 36.8164 70.7031C37.2383 70.7031 37.5586 70.8242 37.7773 71.0664C37.9961 71.3086 38.1055 71.6055 38.1055 71.957C38.1055 72.3086 37.9961 72.6016 37.7773 72.8359C37.5586 73.0703 37.2383 73.1875 36.8164 73.1875C36.3945 73.1875 36.0781 73.0703 35.8672 72.8359C35.6562 72.6016 35.5508 72.3086 35.5508 71.957Z" fill="#18191B"/>
<path d="M46.707 88.2344C44.9883 88.2344 43.5898 87.6719 42.5117 86.5469C41.4336 85.4141 40.8945 83.9023 40.8945 82.0117V81.6133C40.8945 80.3555 41.1328 79.2344 41.6094 78.25C42.0938 77.2578 42.7656 76.4844 43.625 75.9297C44.4922 75.3672 45.4297 75.0859 46.4375 75.0859C48.0859 75.0859 49.3672 75.6289 50.2812 76.7148C51.1953 77.8008 51.6523 79.3555 51.6523 81.3789V82.2812H43.0625C43.0938 83.5312 43.457 84.543 44.1523 85.3164C44.8555 86.082 45.7461 86.4648 46.8242 86.4648C47.5898 86.4648 48.2383 86.3086 48.7695 85.9961C49.3008 85.6836 49.7656 85.2695 50.1641 84.7539L51.4883 85.7852C50.4258 87.418 48.832 88.2344 46.707 88.2344ZM46.4375 76.8672C45.5625 76.8672 44.8281 77.1875 44.2344 77.8281C43.6406 78.4609 43.2734 79.3516 43.1328 80.5H49.4844V80.3359C49.4219 79.2344 49.125 78.3828 48.5938 77.7812C48.0625 77.1719 47.3438 76.8672 46.4375 76.8672Z" fill="#18191B"/>
<path d="M59.2578 86.4648C60.0312 86.4648 60.707 86.2305 61.2852 85.7617C61.8633 85.293 62.1836 84.707 62.2461 84.0039H64.2969C64.2578 84.7305 64.0078 85.4219 63.5469 86.0781C63.0859 86.7344 62.4688 87.2578 61.6953 87.6484C60.9297 88.0391 60.1172 88.2344 59.2578 88.2344C57.5312 88.2344 56.1562 87.6602 55.1328 86.5117C54.1172 85.3555 53.6094 83.7773 53.6094 81.7773V81.4141C53.6094 80.1797 53.8359 79.082 54.2891 78.1211C54.7422 77.1602 55.3906 76.4141 56.2344 75.8828C57.0859 75.3516 58.0898 75.0859 59.2461 75.0859C60.668 75.0859 61.8477 75.5117 62.7852 76.3633C63.7305 77.2148 64.2344 78.3203 64.2969 79.6797H62.2461C62.1836 78.8594 61.8711 78.1875 61.3086 77.6641C60.7539 77.1328 60.0664 76.8672 59.2461 76.8672C58.1445 76.8672 57.2891 77.2656 56.6797 78.0625C56.0781 78.8516 55.7773 79.9961 55.7773 81.4961V81.9062C55.7773 83.3672 56.0781 84.4922 56.6797 85.2812C57.2812 86.0703 58.1406 86.4648 59.2578 86.4648Z" fill="#18191B"/>
<path d="M69.6758 72.25V75.3203H72.043V76.9961H69.6758V84.8594C69.6758 85.3672 69.7812 85.75 69.9922 86.0078C70.2031 86.2578 70.5625 86.3828 71.0703 86.3828C71.3203 86.3828 71.6641 86.3359 72.1016 86.2422V88C71.5312 88.1562 70.9766 88.2344 70.4375 88.2344C69.4688 88.2344 68.7383 87.9414 68.2461 87.3555C67.7539 86.7695 67.5078 85.9375 67.5078 84.8594V76.9961H65.1992V75.3203H67.5078V72.25H69.6758Z" fill="#18191B"/>
<path d="M81.9688 84.6367C81.9688 84.0508 81.7461 83.5977 81.3008 83.2773C80.8633 82.9492 80.0938 82.668 78.9922 82.4336C77.8984 82.1992 77.0273 81.918 76.3789 81.5898C75.7383 81.2617 75.2617 80.8711 74.9492 80.418C74.6445 79.9648 74.4922 79.4258 74.4922 78.8008C74.4922 77.7617 74.9297 76.8828 75.8047 76.1641C76.6875 75.4453 77.8125 75.0859 79.1797 75.0859C80.6172 75.0859 81.7812 75.457 82.6719 76.1992C83.5703 76.9414 84.0195 77.8906 84.0195 79.0469H81.8398C81.8398 78.4531 81.5859 77.9414 81.0781 77.5117C80.5781 77.082 79.9453 76.8672 79.1797 76.8672C78.3906 76.8672 77.7734 77.0391 77.3281 77.3828C76.8828 77.7266 76.6602 78.1758 76.6602 78.7305C76.6602 79.2539 76.8672 79.6484 77.2812 79.9141C77.6953 80.1797 78.4414 80.4336 79.5195 80.6758C80.6055 80.918 81.4844 81.207 82.1562 81.543C82.8281 81.8789 83.3242 82.2852 83.6445 82.7617C83.9727 83.2305 84.1367 83.8047 84.1367 84.4844C84.1367 85.6172 83.6836 86.5273 82.7773 87.2148C81.8711 87.8945 80.6953 88.2344 79.25 88.2344C78.2344 88.2344 77.3359 88.0547 76.5547 87.6953C75.7734 87.3359 75.1602 86.8359 74.7148 86.1953C74.2773 85.5469 74.0586 84.8477 74.0586 84.0977H76.2266C76.2656 84.8242 76.5547 85.4023 77.0938 85.832C77.6406 86.2539 78.3594 86.4648 79.25 86.4648C80.0703 86.4648 80.7266 86.3008 81.2188 85.9727C81.7188 85.6367 81.9688 85.1914 81.9688 84.6367Z" fill="#18191B"/>
<path d="M24.5936 10.5L23.9998 6.96875H10.4061L8.9373 19.75C9.8748 19.0417 10.9269 18.4583 12.0936 18C13.2811 17.5208 14.6456 17.2604 16.1873 17.2188C20.3748 17.1771 23.6665 18.5417 26.0623 21.3125C28.479 24.0833 29.6873 27.8125 29.6873 32.5C29.6873 37.0625 28.4581 40.7292 25.9998 43.5C23.5623 46.2708 19.9998 47.6562 15.3123 47.6562C11.4581 47.6562 8.2498 46.6042 5.6873 44.5C3.14564 42.3958 1.92689 39.3021 2.03105 35.2188L2.09355 35.0312H7.65605C7.65605 37.4896 8.36439 39.4062 9.78105 40.7812C11.2186 42.1562 13.0623 42.8438 15.3123 42.8438C17.9165 42.8438 19.9373 41.9271 21.3748 40.0938C22.8123 38.2604 23.5311 35.75 23.5311 32.5625C23.5311 29.625 22.8019 27.2292 21.3436 25.375C19.9061 23.5 17.9061 22.5625 15.3436 22.5625C12.9269 22.5625 11.1665 22.9271 10.0623 23.6562C8.97897 24.3854 8.1873 25.5 7.6873 27L2.5623 26.4688L5.1873 1.5H29.2186V10.5H24.5936Z" fill="#18191B"/>
<path d="M65.5623 29.6562C65.5623 35.4688 64.2706 39.9271 61.6873 43.0312C59.104 46.1146 55.5727 47.6562 51.0936 47.6562C46.6352 47.6562 43.104 46.1042 40.4998 43C37.8956 39.8958 36.5936 35.4479 36.5936 29.6562V18.875C36.5936 13.0833 37.8852 8.63542 40.4686 5.53125C43.0519 2.40625 46.5727 0.84375 51.0311 0.84375C55.5102 0.84375 59.0519 2.40625 61.6561 5.53125C64.2602 8.63542 65.5623 13.0833 65.5623 18.875V29.6562ZM59.4061 17.5625C59.4061 13.625 58.6873 10.6667 57.2498 8.6875C55.8331 6.6875 53.7602 5.6875 51.0311 5.6875C48.3436 5.6875 46.2915 6.6875 44.8748 8.6875C43.4581 10.6667 42.7498 13.625 42.7498 17.5625V30.9062C42.7498 34.8438 43.4686 37.8229 44.9061 39.8438C46.3436 41.8438 48.4061 42.8438 51.0936 42.8438C53.8227 42.8438 55.8852 41.8438 57.2811 39.8438C58.6977 37.8438 59.4061 34.8646 59.4061 30.9062V17.5625Z" fill="#18191B"/>
<path d="M102.062 29.6562C102.062 35.4688 100.771 39.9271 98.1873 43.0312C95.604 46.1146 92.0727 47.6562 87.5936 47.6562C83.1352 47.6562 79.604 46.1042 76.9998 43C74.3956 39.8958 73.0936 35.4479 73.0936 29.6562V18.875C73.0936 13.0833 74.3852 8.63542 76.9686 5.53125C79.5519 2.40625 83.0727 0.84375 87.5311 0.84375C92.0102 0.84375 95.5519 2.40625 98.1561 5.53125C100.76 8.63542 102.062 13.0833 102.062 18.875V29.6562ZM95.9061 17.5625C95.9061 13.625 95.1873 10.6667 93.7498 8.6875C92.3331 6.6875 90.2602 5.6875 87.5311 5.6875C84.8436 5.6875 82.7915 6.6875 81.3748 8.6875C79.9581 10.6667 79.2498 13.625 79.2498 17.5625V30.9062C79.2498 34.8438 79.9686 37.8229 81.4061 39.8438C82.8436 41.8438 84.9061 42.8438 87.5936 42.8438C90.3227 42.8438 92.3852 41.8438 93.7811 39.8438C95.1977 37.8438 95.9061 34.8646 95.9061 30.9062V17.5625Z" fill="#18191B"/>
<path d="M126.781 22.5312H139.281V28.0938H126.781V42.4375H120.625V28.0938H108.094V22.5312H120.625V9.3125H126.781V22.5312Z" fill="#18191B"/>
</svg>

<svg width="200" height="94" fill="none" xmlns="http://www.w3.org/2000/svg"><path d="M11.352 81.8c0 1.93-.442 3.485-1.325 4.665-.882 1.18-2.078 1.77-3.586 1.77-1.539 0-2.75-.489-3.632-1.466v6.106H.64V75.32h1.98l.106 1.407c.882-1.094 2.109-1.641 3.68-1.641 1.523 0 2.726.574 3.609 1.723.89 1.148 1.336 2.746 1.336 4.793v.199zm-2.168-.245c0-1.43-.305-2.559-.914-3.387-.61-.828-1.446-1.242-2.508-1.242-1.313 0-2.297.582-2.953 1.746v6.059c.648 1.156 1.64 1.734 2.976 1.734 1.04 0 1.863-.41 2.473-1.23.617-.829.926-2.055.926-3.68zm11.062-4.29a6.495 6.495 0 0 0-1.066-.081c-1.422 0-2.387.605-2.895 1.816v9h-2.168V75.32h2.11l.035 1.465c.71-1.133 1.718-1.7 3.023-1.7.422 0 .742.056.961.165v2.016zm1.195 4.278c0-1.242.243-2.36.727-3.352.492-.992 1.172-1.757 2.039-2.297.875-.538 1.871-.808 2.988-.808 1.727 0 3.121.598 4.184 1.793 1.07 1.195 1.605 2.785 1.605 4.77v.152c0 1.234-.238 2.343-.715 3.328-.468.977-1.144 1.738-2.027 2.285-.875.547-1.883.82-3.023.82-1.719 0-3.114-.597-4.184-1.793-1.062-1.195-1.594-2.777-1.594-4.746v-.152zm2.18.258c0 1.406.324 2.535.973 3.386.656.852 1.531 1.278 2.625 1.278 1.101 0 1.976-.43 2.625-1.29.648-.866.972-2.077.972-3.632 0-1.39-.332-2.516-.996-3.375-.656-.867-1.53-1.3-2.625-1.3-1.07 0-1.933.425-2.59 1.276-.656.852-.984 2.07-.984 3.657zm14.32-6.48v14.144c0 2.437-1.105 3.656-3.316 3.656-.477 0-.918-.07-1.324-.21v-1.735c.25.062.578.093.984.093.485 0 .852-.132 1.102-.398.258-.258.386-.71.386-1.36v-14.19h2.168zm-2.39-3.364c0-.344.105-.637.316-.879.219-.25.535-.375.95-.375.421 0 .742.121.96.363.22.243.328.54.328.891 0 .352-.109.645-.328.879-.218.234-.539.352-.96.352-.422 0-.739-.118-.95-.352-.21-.234-.316-.527-.316-.879zm11.156 16.277c-1.719 0-3.117-.562-4.195-1.687-1.078-1.133-1.617-2.645-1.617-4.535v-.399c0-1.257.238-2.379.714-3.363.485-.992 1.157-1.766 2.016-2.32a5.07 5.07 0 0 1 2.813-.844c1.648 0 2.93.543 3.843 1.629.914 1.086 1.371 2.64 1.371 4.664v.902h-8.59c.032 1.25.395 2.262 1.09 3.035.703.766 1.594 1.149 2.672 1.149.766 0 1.414-.156 1.946-.469a4.889 4.889 0 0 0 1.394-1.242l1.324 1.031c-1.062 1.633-2.656 2.45-4.781 2.45zm-.27-11.367c-.874 0-1.609.32-2.203.961-.593.633-.96 1.524-1.101 2.672h6.351v-.164c-.062-1.102-.359-1.953-.89-2.555-.532-.61-1.25-.914-2.157-.914zm12.82 9.598c.774 0 1.45-.234 2.028-.703.578-.469.899-1.055.961-1.758h2.05c-.038.727-.288 1.418-.75 2.074-.46.656-1.077 1.18-1.85 1.57a5.29 5.29 0 0 1-2.438.586c-1.727 0-3.102-.574-4.125-1.722-1.016-1.156-1.524-2.735-1.524-4.735v-.363c0-1.234.227-2.332.68-3.293.453-.96 1.102-1.707 1.945-2.238.852-.531 1.856-.797 3.012-.797 1.422 0 2.602.426 3.54 1.277.944.852 1.448 1.957 1.51 3.317h-2.05c-.062-.82-.375-1.493-.937-2.016-.555-.531-1.243-.797-2.063-.797-1.102 0-1.957.399-2.566 1.195-.602.79-.903 1.934-.903 3.434v.41c0 1.461.301 2.586.903 3.375.601.79 1.46 1.184 2.578 1.184zM69.677 72.25v3.07h2.367v1.676h-2.367v7.863c0 .508.105.891.316 1.149.211.25.57.375 1.078.375.25 0 .594-.047 1.032-.14V88a6.288 6.288 0 0 1-1.665.234c-.968 0-1.699-.293-2.19-.878-.493-.587-.74-1.418-.74-2.497v-7.863H65.2V75.32h2.309v-3.07h2.168zm12.293 12.387c0-.586-.223-1.04-.668-1.36-.438-.328-1.207-.609-2.309-.843-1.094-.235-1.965-.516-2.613-.844-.64-.328-1.117-.719-1.43-1.172-.305-.453-.457-.992-.457-1.617 0-1.04.438-1.918 1.313-2.637.882-.719 2.007-1.078 3.375-1.078 1.437 0 2.601.371 3.492 1.113.898.742 1.347 1.692 1.347 2.848h-2.18c0-.594-.253-1.106-.76-1.535-.5-.43-1.134-.645-1.9-.645-.788 0-1.406.172-1.85.516-.446.344-.669.793-.669 1.348 0 .523.207.917.621 1.183.414.266 1.16.52 2.238.762 1.087.242 1.965.531 2.637.867.672.336 1.168.742 1.488 1.219.329.469.493 1.043.493 1.722 0 1.133-.453 2.043-1.36 2.73-.906.68-2.082 1.02-3.527 1.02-1.016 0-1.914-.18-2.695-.539-.782-.36-1.395-.86-1.84-1.5a3.679 3.679 0 0 1-.656-2.097h2.168c.039.726.328 1.304.867 1.734.547.422 1.265.633 2.156.633.82 0 1.477-.164 1.969-.492.5-.336.75-.782.75-1.336zM24.594 10.5L24 6.969H10.406L8.937 19.75A13.223 13.223 0 0 1 12.094 18c1.187-.48 2.552-.74 4.093-.781 4.188-.042 7.48 1.323 9.875 4.093 2.417 2.771 3.625 6.5 3.625 11.188 0 4.563-1.229 8.23-3.687 11-2.438 2.77-6 4.156-10.688 4.156-3.854 0-7.062-1.052-9.625-3.156-2.541-2.104-3.76-5.198-3.656-9.281l.063-.188h5.562c0 2.459.708 4.375 2.125 5.75 1.438 1.375 3.281 2.063 5.531 2.063 2.604 0 4.625-.917 6.063-2.75 1.437-1.834 2.156-4.344 2.156-7.532 0-2.937-.73-5.333-2.187-7.187-1.438-1.875-3.438-2.813-6-2.813-2.417 0-4.178.365-5.282 1.094C8.98 24.386 8.187 25.5 7.687 27l-5.125-.531L5.187 1.5H29.22v9h-4.625zm40.968 19.156c0 5.813-1.291 10.271-3.875 13.375-2.583 3.084-6.114 4.625-10.593 4.625-4.459 0-7.99-1.552-10.594-4.656-2.604-3.104-3.906-7.552-3.906-13.344V18.875c0-5.792 1.291-10.24 3.875-13.344C43.052 2.406 46.573.844 51.03.844c4.48 0 8.02 1.562 10.625 4.687 2.604 3.104 3.906 7.552 3.906 13.344v10.781zm-6.156-12.093c0-3.938-.719-6.896-2.156-8.875-1.417-2-3.49-3-6.219-3-2.687 0-4.74 1-6.156 3-1.417 1.979-2.125 4.937-2.125 8.874v13.344c0 3.938.719 6.917 2.156 8.938 1.438 2 3.5 3 6.188 3 2.729 0 4.791-1 6.187-3 1.417-2 2.125-4.98 2.125-8.938V17.563zm42.656 12.093c0 5.813-1.291 10.271-3.875 13.375-2.583 3.084-6.114 4.625-10.593 4.625-4.459 0-7.99-1.552-10.594-4.656-2.604-3.104-3.906-7.552-3.906-13.344V18.875c0-5.792 1.291-10.24 3.875-13.344C79.552 2.406 83.073.844 87.53.844c4.48 0 8.02 1.562 10.625 4.687 2.604 3.104 3.906 7.552 3.906 13.344v10.781zm-6.156-12.093c0-3.938-.719-6.896-2.156-8.875-1.417-2-3.49-3-6.219-3-2.687 0-4.74 1-6.156 3-1.417 1.979-2.125 4.937-2.125 8.874v13.344c0 3.938.719 6.917 2.156 8.938 1.438 2 3.5 3 6.188 3 2.729 0 4.791-1 6.187-3 1.417-2 2.125-4.98 2.125-8.938V17.563zm30.875 4.968h12.5v5.563h-12.5v14.343h-6.156V28.095h-12.531V22.53h12.531V9.313h6.156V22.53z" fill="#18191B"/></svg>
